X: 1
T: Trinkt Briderlakh Lekhayim
O: Shloimke Beckerman
R: horra
Z: 2008 John Chambers <jc:trillian.mit.edu>
Z: 2008 Steve Rauch
S: printed MS from Steve Rauch
M: 6/8
L: 1/16
K: Aphr^c
|:"A"A3Bcd e4a2 | e3a^ga e6 |1,3 "Dm"f4ed "A"e4dc | "Dm"d4cB "A"c2d2e2 \
                             :|2,4 "Dm"d2d2d2 d3ced | "A"c6- c6 :|
|: "A"a2a2a2 a3gba | "C"g2g2g2 g2fed | "C"=c3Gce "G7"d3efd | "C"e6- e3=ceg |
|  "A"a2a2a2 a3c'=ba | "C"g2g2g2 g3fed | "A"c2c2c2 "Gm"B3ABG | "A"A6- A6 :|
|: "A"A2c2c2 c3Ace | "Dm"d2d2d2 d3fed |1,3 "A"A2c2c2 c3Ace | "Dm"d2a2a2 ^g3fed \
                                       :|2,4 "A"c2c2c2 "Gm"B3ABG | "A"A6- A6 :|
